img/mysql.svg

<svg width="110" height="126" viewBox="0 0 110 126" fill="none" xmlns="http://www.w3.org/2000/svg">
<path d="M0.00088704 107.372H3.64511V80.1658L9.28709 103.884C9.95242 106.755 10.8635 107.77 12.651 107.77C14.4385 107.77 15.315 106.755 15.9803 103.884L21.6223 80.1658V107.372H25.2665V80.2111C25.2665 77.5614 24.7058 76.2785 23.5491 75.6178C20.7804 73.9843 18.9228 75.3981 18.0818 78.9315L12.5454 102.339L7.18465 78.9299C6.37828 75.3981 4.48608 73.9843 1.71743 75.6161C0.56065 76.2785 0 77.5597 0 80.2094V107.372H0.00088704ZM28.2977 85.2254H31.9411V100.215C31.9074 101.028 32.0795 102.94 34.0754 103C35.0938 103.03 41.937 103 42.0008 103V85.1516H45.653C45.6699 85.1516 45.6495 109.492 45.6495 109.593C45.669 115.596 41.7099 116.899 39.8842 117H28.3767V112.365C28.3962 112.365 39.8762 112.37 39.9046 112.363C42.251 111.895 41.9733 109.692 41.9724 108.95V107.142H34.2271C30.6237 107.08 28.3279 104.107 28.2986 100.686C28.2968 100.372 28.3776 85.3764 28.2977 85.2254ZM48.4625 107.372H58.941C60.1678 107.372 61.3601 106.888 62.3057 106.049C63.8821 104.681 64.653 102.826 64.653 100.394V95.3597C64.653 93.3724 63.7775 91.5159 62.06 90.2816C61.149 89.6175 60.0268 89.2671 58.9401 89.2671H54.5241C53.0524 89.2671 52.3516 88.4285 52.1768 86.5737C52.1422 86.3524 52.1422 86.1763 52.1422 85.9549V82.8189C52.1422 82.6428 52.1422 82.465 52.1768 82.2453C52.3516 80.8316 52.7374 80.4342 54.0344 80.2128L54.3848 80.1692H64.7932V75.5775H54.5604C53.0887 75.5775 52.3178 75.7536 51.617 76.151C49.4445 77.4323 48.4971 79.4632 48.4971 82.9966V87.0148C48.4971 90.1072 50.3556 92.7569 53.4737 93.3758C53.825 93.4177 54.1745 93.4646 54.525 93.4646H58.3102C58.4504 93.4646 58.5906 93.4646 58.6961 93.5066C59.8529 93.6827 60.3426 94.0818 60.6939 94.875C60.7839 95.0322 60.8553 95.2235 60.9035 95.4365C60.9516 95.6495 60.9754 95.8794 60.9733 96.111V100.131C60.9733 100.615 60.7986 101.234 60.4481 101.764C60.1332 102.294 59.6072 102.648 58.9064 102.737L58.5205 102.781H48.4625V107.372ZM87.3895 99.3795C87.3895 104.104 89.2471 106.753 92.996 107.285C93.3464 107.329 93.6968 107.372 94.0472 107.372H103.545V102.781H93.978C91.8401 102.781 91.0346 101.764 91.0346 99.3342V75.5741H87.3904V99.3795H87.3895ZM66.979 99.6176V83.2415C66.979 79.0825 68.5243 76.5586 71.5795 75.762C71.9051 75.6737 72.2336 75.6294 72.5624 75.6295H79.481C79.8323 75.6295 80.1481 75.6731 80.4985 75.762C83.5536 76.5586 85.0999 79.0808 85.0999 83.2415V99.6176C85.0999 102.995 84.4434 104.8 82.9309 105.977L86.5219 112.103H82.2895L79.3852 107.146L76.4613 107.496H72.5624C71.8382 107.488 71.1179 107.294 70.421 106.921C68.103 105.727 66.979 103.424 66.979 99.6176ZM70.9133 99.2202C70.9133 99.4416 70.9479 99.6646 70.9834 99.9296C71.1936 101.833 72.1428 102.895 73.5817 102.895H76.8924L73.8514 97.7042H78.0838L80.7353 102.232C81.225 101.737 81.5461 100.986 81.6588 100.018C81.6934 99.7971 81.6934 99.5757 81.6934 99.3544V83.644C81.6934 83.4679 81.6934 83.2449 81.6588 83.0235C81.4477 81.2526 80.4994 80.2363 79.0951 80.2363H73.5808C71.9663 80.2363 70.9124 81.5645 70.9124 83.644V99.2202H70.9133ZM106.751 67.9521C104.511 67.8364 102.799 68.2305 101.336 69.396C100.92 69.728 100.257 69.7364 100.19 70.7208C100.418 71.1753 100.453 71.8512 100.635 72.4079C100.984 73.4762 101.574 74.9084 102.1 75.658C102.674 76.4781 103.267 77.3568 103.884 78.0679C104.98 79.3324 106.204 80.0535 107.261 81.3179C107.882 82.0659 108.5 83.005 109.108 83.8486C109.408 84.2628 109.609 84.9118 110 85.1718V85.0527C109.795 84.5596 109.742 83.8821 109.554 83.3656L108.725 81.7993C107.915 79.7667 106.888 77.984 105.794 76.5015C104.923 75.3192 102.973 73.721 102.61 71.8042L102.546 71.6851C103.163 71.5526 103.887 71.13 104.456 70.8416C105.415 70.3552 106.271 70.481 107.26 69.998L108.597 69.2736V68.7939C108.098 67.8246 107.741 66.54 107.196 65.6629C105.77 63.3671 104.213 61.0729 102.61 59.1578C101.721 58.0979 100.622 57.4086 99.6785 56.5097C99.3627 56.2062 98.8056 56.0502 98.5954 55.5454C98.0995 54.3531 97.8307 52.8421 97.4484 51.4518C96.6318 48.4485 95.867 45.3958 95.1552 42.2986C94.6726 40.2107 94.3568 38.1513 93.7545 36.2781C90.8616 27.2876 87.7479 21.8607 82.9247 16.5278C81.8983 15.3924 80.6626 14.9464 79.3577 14.3611L77.2552 14.1196C76.8285 13.7825 76.3832 12.7931 75.9813 12.3134C74.3828 10.405 70.2844 6.25434 69.101 11.7131C68.354 15.1577 70.2187 18.5184 70.8849 20.2642C71.3524 21.4884 71.9521 22.8602 72.2866 24.2371C72.5066 25.1427 72.5438 26.0499 72.7328 27.0075C73.1949 29.3654 73.5986 31.9329 74.1974 34.1114C74.4999 35.2149 74.8343 36.3771 75.2167 37.3631C75.4509 37.9669 75.8536 38.2352 75.9166 39.1693C75.5236 40.2091 75.5005 41.8257 75.2796 43.1422C74.2843 49.0772 74.6596 56.4544 76.1082 60.8465C76.5526 62.1965 77.5994 65.0877 79.0383 63.9775C80.2971 63.0082 80.0168 60.0047 80.3769 57.3533C80.4586 56.7546 80.408 56.3118 80.5677 55.9094V56.0301L81.7147 60.3652C82.5636 62.9495 84.0691 65.6478 85.3456 67.4708C86.0074 68.4149 86.529 70.05 87.3842 70.6018V70.4793H87.3212C87.1544 69.9913 86.8963 69.7901 86.6834 69.396C86.1848 68.472 85.6304 67.3249 85.2188 66.265C84.0575 63.2866 83.032 60.0248 82.097 56.6305C81.6508 55.0105 81.2632 53.2228 80.887 51.5726C80.7415 50.937 80.7433 49.9744 80.4417 49.6473C80.0283 50.8548 79.4224 51.8325 79.1031 53.2597C78.5939 55.5404 78.5282 58.3226 78.3393 61.2071L78.2115 61.3261C77.3235 60.922 77.0122 59.1946 76.6822 57.7138C75.8483 53.969 75.693 47.9368 76.4276 43.6251C76.6174 42.5083 77.4752 38.9949 77.1275 37.9635C76.9616 36.9355 76.4142 36.3418 76.1091 35.5536C75.7087 34.4989 75.3671 33.3688 75.0898 32.1811C74.4067 29.2614 74.0883 25.9829 73.3706 23.0296C73.0264 21.6176 72.4462 20.1904 71.969 18.936C71.4411 17.5441 70.8494 16.5211 70.4396 14.8407C70.2941 14.2437 70.0963 13.2861 70.3119 12.6723C70.3802 12.2581 70.4786 12.0854 70.6951 11.9495C71.0641 11.4112 72.0932 12.129 72.4782 12.4308C73.5001 13.2341 74.3526 13.9972 75.2184 15.0805C75.6336 15.6021 76.0532 16.6083 76.5562 16.8867H77.1292C78.0261 17.2757 79.0312 17.0057 79.8686 17.4871C81.3501 18.339 82.6772 19.6621 83.8819 21.101C87.5536 25.4848 90.5547 31.7233 92.6092 39.1659C92.9392 40.365 93.0829 41.5071 93.373 42.7783C93.9603 45.3408 94.7001 47.9787 95.2838 50.4859C95.8667 52.9863 96.4353 55.5102 97.2594 57.5914C97.6923 58.6848 99.3654 59.2718 100.126 59.8789C100.659 60.3048 101.532 60.7492 102.036 61.3228C103.001 62.4229 103.936 63.7327 104.84 64.9368C105.291 65.5439 106.681 66.8637 106.751 67.9521ZM78.2754 22.0704C77.8892 22.0584 77.5037 22.1395 77.1284 22.3118V22.4309H77.1922C77.4149 23.2979 77.8079 23.8547 78.0838 24.5993L78.7216 27.1283L78.7846 27.0092C79.1793 26.4843 79.3594 25.6441 79.3577 24.3595C79.1989 24.0442 79.1758 23.6501 79.0392 23.2761C78.8582 22.773 78.5051 22.4913 78.2754 22.0704Z" fill="#00618A"/>
</svg>

<svg xmlns="http://www.w3.org/2000/svg" width="110" height="126" fill="none"><path fill="#00618A" d="M0 107.372h3.645V80.166l5.642 23.718c.665 2.871 1.576 3.886 3.364 3.886 1.787 0 2.664-1.015 3.33-3.886l5.641-23.718v27.206h3.645v-27.16c0-2.65-.561-3.934-1.718-4.594-2.769-1.634-4.626-.22-5.467 3.314l-5.537 23.407-5.36-23.41c-.807-3.53-2.699-4.945-5.468-3.313C.561 76.278 0 77.56 0 80.21v27.163Zm28.298-22.147h3.643v14.99c-.034.813.139 2.725 2.134 2.785 1.019.03 7.862 0 7.926 0V85.152h3.652c.017 0-.003 24.34-.003 24.441.019 6.003-3.94 7.306-5.766 7.407H28.377v-4.635c.02 0 11.5.005 11.528-.002 2.346-.468 2.068-2.671 2.067-3.413v-1.808h-7.745c-3.603-.062-5.9-3.035-5.928-6.456-.002-.314.079-15.31-.001-15.46Zm20.165 22.147H58.94c1.227 0 2.42-.484 3.365-1.323 1.576-1.368 2.347-3.223 2.347-5.655V95.36c0-1.988-.876-3.844-2.593-5.078a5.359 5.359 0 0 0-3.12-1.015h-4.416c-1.472 0-2.172-.838-2.347-2.693-.035-.222-.035-.398-.035-.62V82.82c0-.176 0-.354.035-.574.175-1.413.56-1.81 1.857-2.032l.35-.044h10.41v-4.591H54.56c-1.471 0-2.242.176-2.943.573-2.172 1.281-3.12 3.312-3.12 6.846v4.018c0 3.092 1.859 5.742 4.977 6.36.351.043.7.09 1.051.09h3.785c.14 0 .28 0 .386.042 1.157.176 1.647.575 1.998 1.368.09.157.161.349.21.561.048.213.071.443.07.675v4.02c0 .484-.175 1.103-.526 1.633-.315.53-.84.884-1.542.973l-.386.044H48.462v4.591Zm38.926-7.993c0 4.725 1.858 7.374 5.607 7.906.35.044.7.087 1.051.087h9.498v-4.591h-9.567c-2.138 0-2.943-1.017-2.943-3.447v-23.76H87.39V99.38Zm-20.41.239V83.242c0-4.16 1.545-6.683 4.6-7.48a3.74 3.74 0 0 1 .983-.133h6.919c.351 0 .667.044 1.018.133 3.055.797 4.6 3.319 4.6 7.48v16.376c0 3.377-.656 5.182-2.168 6.359l3.59 6.126H82.29l-2.905-4.957-2.924.35h-3.899c-.724-.008-1.444-.202-2.141-.575-2.318-1.194-3.442-3.497-3.442-7.303Zm3.934-.398c0 .222.035.445.07.71.21 1.903 1.16 2.965 2.599 2.965h3.31l-3.04-5.19h4.232l2.651 4.527c.49-.495.811-1.246.924-2.214.034-.22.034-.442.034-.664v-15.71c0-.176 0-.4-.034-.62-.211-1.771-1.16-2.788-2.564-2.788h-5.514c-1.615 0-2.669 1.328-2.669 3.408V99.22h.001Zm35.838-31.268c-2.24-.116-3.952.279-5.415 1.444-.416.332-1.079.34-1.146 1.325.228.454.263 1.13.445 1.687.349 1.068.939 2.5 1.465 3.25.574.82 1.167 1.699 1.784 2.41 1.096 1.264 2.32 1.986 3.377 3.25.621.748 1.239 1.687 1.847 2.53.3.415.501 1.064.892 1.324v-.12c-.205-.492-.258-1.17-.446-1.686l-.829-1.567a23.79 23.79 0 0 0-2.931-5.298c-.871-1.182-2.821-2.78-3.184-4.697l-.064-.119c.617-.132 1.341-.555 1.91-.843.959-.487 1.815-.361 2.804-.844l1.337-.724v-.48c-.499-.97-.856-2.254-1.401-3.131-1.426-2.296-2.983-4.59-4.586-6.505-.889-1.06-1.988-1.75-2.931-2.648-.316-.304-.873-.46-1.084-.965-.495-1.192-.764-2.703-1.147-4.093a238.452 238.452 0 0 1-2.293-9.153c-.482-2.088-.798-4.148-1.4-6.02-2.893-8.991-6.007-14.418-10.83-19.751-1.027-1.136-2.262-1.582-3.567-2.167l-2.103-.241c-.426-.337-.872-1.327-1.274-1.807-1.598-1.908-5.697-6.059-6.88-.6-.747 3.445 1.118 6.805 1.784 8.551.467 1.224 1.067 2.596 1.402 3.973.22.906.257 1.813.446 2.77.462 2.358.866 4.926 1.464 7.104.303 1.104.637 2.266 1.02 3.252.234.604.637.872.7 1.806-.393 1.04-.416 2.657-.637 3.973-.996 5.935-.62 13.312.828 17.704.445 1.35 1.491 4.242 2.93 3.132 1.26-.97.979-3.973 1.339-6.625.082-.598.031-1.041.19-1.444v.121l1.148 4.335c.849 2.584 2.354 5.283 3.63 7.106.662.944 1.184 2.579 2.04 3.13v-.122h-.064c-.167-.488-.425-.689-.638-1.083a29.217 29.217 0 0 1-1.464-3.131c-1.161-2.978-2.187-6.24-3.122-9.635-.446-1.62-.834-3.407-1.21-5.057-.145-.636-.144-1.599-.445-1.926-.414 1.208-1.02 2.186-1.339 3.613-.51 2.28-.575 5.063-.764 7.947l-.127.12c-.889-.405-1.2-2.132-1.53-3.613-.834-3.745-.989-9.777-.254-14.089.19-1.117 1.047-4.63.7-5.661-.166-1.029-.714-1.622-1.019-2.41a26.489 26.489 0 0 1-1.02-3.373c-.682-2.92-1-6.198-1.718-9.151-.345-1.412-.925-2.84-1.402-4.094-.528-1.392-1.12-2.415-1.53-4.095-.145-.597-.343-1.555-.127-2.169.068-.414.167-.587.383-.723.37-.538 1.398.18 1.783.482 1.022.803 1.875 1.566 2.74 2.65.416.521.835 1.527 1.338 1.806h.573c.897.389 1.902.119 2.74.6 1.481.852 2.808 2.175 4.013 3.614 3.672 4.384 6.673 10.622 8.727 18.065.33 1.199.474 2.341.764 3.612.587 2.563 1.327 5.2 1.91 7.708.584 2.5 1.152 5.024 1.976 7.105.433 1.094 2.106 1.68 2.867 2.288.533.426 1.406.87 1.91 1.444.965 1.1 1.9 2.41 2.804 3.614.451.607 1.841 1.927 1.911 3.015ZM78.275 22.07a2.542 2.542 0 0 0-1.147.242v.119h.064c.223.867.616 1.424.892 2.168l.638 2.53.063-.12c.394-.525.574-1.365.573-2.65-.16-.315-.182-.709-.319-1.083-.18-.503-.534-.785-.764-1.206Z"/></svg>
